humanity-icon-theme/Humanity/places/24/folder.svg

<?xml version="1.0" encoding="UTF-8" standalone="no"?>
<!-- Created with Inkscape (http://www.inkscape.org/) -->
<svg
   xmlns:svg="http://www.w3.org/2000/svg"
   xmlns="http://www.w3.org/2000/svg"
   xmlns:xlink="http://www.w3.org/1999/xlink"
   version="1.0"
   width="24"
   height="24"
   id="svg3272">
  <defs
     id="defs3274">
    <linearGradient
       x1="18.03083"
       y1="16.407909"
       x2="20.054544"
       y2="24.627615"
       id="linearGradient3404"
       xlink:href="#linearGradient8265-821-176-38-919-66-249"
       gradientUnits="userSpaceOnUse" />
    <linearGradient
       id="linearGradient3752">
      <stop
         id="stop3754"
         style="stop-color:#ffffff;stop-opacity:1"
         offset="0" />
      <stop
         id="stop3760"
         style="stop-color:#ffffff;stop-opacity:1"
         offset="0.84754151" />
      <stop
         id="stop3756"
         style="stop-color:#ffffff;stop-opacity:0"
         offset="1" />
    </linearGradient>
    <radialGradient
       cx="4.02005"
       cy="5.5926585"
       r="10.273108"
       fx="4.02005"
       fy="5.5926585"
       id="radialGradient3402"
       xlink:href="#linearGradient3752"
       gradientUnits="userSpaceOnUse"
       gradientTransform="matrix(-1.680222e-2,1.3942814,-1.79662,-2.165073e-2,-5.3658054,-19.339419)" />
    <linearGradient
       x1="9.7045717"
       y1="20.882006"
       x2="9.7045717"
       y2="4.3030405"
       id="linearGradient3400"
       xlink:href="#linearGradient3390-178-986-453"
       gradientUnits="userSpaceOnUse"
       gradientTransform="matrix(0.9945751,0,0,0.9945751,-19.857339,-19.77827)" />
    <radialGradient
       cx="7.8185525"
       cy="8.5608768"
       r="11.268134"
       fx="7.8185525"
       fy="8.5608768"
       id="radialGradient3398"
       xlink:href="#linearGradient7012-661-145-733-759-865-745-661-970-94"
       gradientUnits="userSpaceOnUse"
       gradientTransform="matrix(1.6899516,0,0,1.0436086,-24.967043,-20.53429)" />
    <linearGradient
       id="linearGradient5157">
      <stop
         id="stop5159"
         style="stop-color:#c1c1c1;stop-opacity:1"
         offset="0" />
      <stop
         id="stop5161"
         style="stop-color:#909090;stop-opacity:1"
         offset="1" />
    </linearGradient>
    <linearGradient
       x1="9.8763561"
       y1="2.6014566"
       x2="9.8763561"
       y2="23.061668"
       id="linearGradient3396"
       xlink:href="#linearGradient5157"
       gradientUnits="userSpaceOnUse"
       gradientTransform="translate(-19.518072,-21.496043)" />
    <linearGradient
       id="linearGradient11111">
      <stop
         id="stop11113"
         style="stop-color:#ffffff;stop-opacity:1"
         offset="0" />
      <stop
         id="stop11115"
         style="stop-color:#cdcdcd;stop-opacity:1"
         offset="0.91013825" />
      <stop
         id="stop11117"
         style="stop-color:#a1a1a1;stop-opacity:1"
         offset="1" />
    </linearGradient>
    <linearGradient
       x1="-28.531403"
       y1="17.955765"
       x2="-28.531403"
       y2="37.502914"
       id="linearGradient3394"
       xlink:href="#linearGradient11111"
       gradientUnits="userSpaceOnUse"
       gradientTransform="translate(14.859932,-35.997365)" />
    <radialGradient
       cx="605.71429"
       cy="486.64789"
       r="117.14286"
       fx="605.71429"
       fy="486.64789"
       id="radialGradient3392"
       xlink:href="#linearGradient5060"
       gradientUnits="userSpaceOnUse"
       gradientTransform="matrix(-2.774389,0,0,1.969706,112.7623,-872.8854)" />
    <linearGradient
       id="linearGradient5060">
      <stop
         id="stop5062"
         style="stop-color:#000000;stop-opacity:1"
         offset="0" />
      <stop
         id="stop5064"
         style="stop-color:#000000;stop-opacity:0"
         offset="1" />
    </linearGradient>
    <radialGradient
       cx="605.71429"
       cy="486.64789"
       r="117.14286"
       fx="605.71429"
       fy="486.64789"
       id="radialGradient3390"
       xlink:href="#linearGradient5060"
       gradientUnits="userSpaceOnUse"
       gradientTransform="matrix(2.774389,0,0,1.969706,-1891.633,-872.8854)" />
    <linearGradient
       id="linearGradient5048">
      <stop
         id="stop5050"
         style="stop-color:#000000;stop-opacity:0"
         offset="0" />
      <stop
         id="stop5056"
         style="stop-color:#000000;stop-opacity:1"
         offset="0.5" />
      <stop
         id="stop5052"
         style="stop-color:#000000;stop-opacity:0"
         offset="1" />
    </linearGradient>
    <linearGradient
       x1="302.85715"
       y1="366.64789"
       x2="302.85715"
       y2="609.50507"
       id="linearGradient3388"
       xlink:href="#linearGradient5048"
       gradientUnits="userSpaceOnUse"
       gradientTransform="matrix(2.774389,0,0,1.969706,-1892.179,-872.8854)" />
    <linearGradient
       id="linearGradient3484">
      <stop
         id="stop3486"
         style="stop-color:#bdbdbd;stop-opacity:1"
         offset="0" />
      <stop
         id="stop3488"
         style="stop-color:#d0d0d0;stop-opacity:1"
         offset="1" />
    </linearGradient>
    <radialGradient
       cx="3"
       cy="5.01718"
       r="21"
       fx="3"
       fy="5.01718"
       id="radialGradient2788"
       xlink:href="#linearGradient3484"
       gradientUnits="userSpaceOnUse"
       gradientTransform="matrix(-1.274898e-8,1.7142916,-2.159331,-1.4599595e-8,12.809361,2.8570011)" />
    <linearGradient
       id="linearGradient6404">
      <stop
         id="stop6406"
         style="stop-color:#f9f9f9;stop-opacity:1"
         offset="0" />
      <stop
         id="stop6408"
         style="stop-color:#c9c9c9;stop-opacity:1"
         offset="1" />
    </linearGradient>
    <linearGradient
       x1="62.988873"
       y1="13.182598"
       x2="62.988873"
       y2="16.19013"
       id="linearGradient2786"
       xlink:href="#linearGradient6404"
       gradientUnits="userSpaceOnUse"
       gradientTransform="translate(-50.940898,0)" />
    <linearGradient
       id="linearGradient5060-820">
      <stop
         id="stop2681"
         style="stop-color:#000000;stop-opacity:1"
         offset="0" />
      <stop
         id="stop2683"
         style="stop-color:#000000;stop-opacity:0"
         offset="1" />
    </linearGradient>
    <radialGradient
       cx="605.71429"
       cy="486.64789"
       r="117.14286"
       fx="605.71429"
       fy="486.64789"
       id="radialGradient7600-312"
       xlink:href="#linearGradient5060-820"
       gradientUnits="userSpaceOnUse"
       gradientTransform="matrix(-3.212956e-2,0,0,3.705882e-2,23.363215,25.412461)" />
    <linearGradient
       id="linearGradient5060-179">
      <stop
         id="stop2675"
         style="stop-color:#000000;stop-opacity:1"
         offset="0" />
      <stop
         id="stop2677"
         style="stop-color:#000000;stop-opacity:0"
         offset="1" />
    </linearGradient>
    <radialGradient
       cx="605.71429"
       cy="486.64789"
       r="117.14286"
       fx="605.71429"
       fy="486.64789"
       id="radialGradient7598-526"
       xlink:href="#linearGradient5060-179"
       gradientUnits="userSpaceOnUse"
       gradientTransform="matrix(3.212956e-2,0,0,3.705882e-2,24.636785,25.412461)" />
    <linearGradient
       id="linearGradient5048-585">
      <stop
         id="stop2667"
         style="stop-color:#000000;stop-opacity:0"
         offset="0" />
      <stop
         id="stop2669"
         style="stop-color:#000000;stop-opacity:1"
         offset="0.5" />
      <stop
         id="stop2671"
         style="stop-color:#000000;stop-opacity:0"
         offset="1" />
    </linearGradient>
    <linearGradient
       x1="302.85715"
       y1="366.64789"
       x2="302.85715"
       y2="609.50507"
       id="linearGradient7596-975"
       xlink:href="#linearGradient5048-585"
       gradientUnits="userSpaceOnUse"
       gradientTransform="matrix(8.284024e-2,0,0,3.705882e-2,-5.9408285,25.412461)" />
    <linearGradient
       id="linearGradient3390-178-986-453">
      <stop
         id="stop3624"
         style="stop-color:#bb2b12;stop-opacity:1"
         offset="0" />
      <stop
         id="stop3626"
         style="stop-color:#cd7233;stop-opacity:1"
         offset="1" />
    </linearGradient>
    <linearGradient
       x1="82.453476"
       y1="45.114193"
       x2="65.340263"
       y2="15.943953"
       id="linearGradient2779"
       xlink:href="#linearGradient3390-178-986-453"
       gradientUnits="userSpaceOnUse"
       gradientTransform="translate(-53.765393,-0.1141929)" />
    <linearGradient
       id="linearGradient7012-661-145-733-759-865-745-661-970-94">
      <stop
         id="stop3618"
         style="stop-color:#edb763;stop-opacity:1"
         offset="0" />
      <stop
         id="stop3270"
         style="stop-color:#de7f32;stop-opacity:1"
         offset="0.5" />
      <stop
         id="stop3620"
         style="stop-color:#d24413;stop-opacity:1"
         offset="1" />
    </linearGradient>
    <radialGradient
       cx="63.969177"
       cy="14.113381"
       r="23.097054"
       fx="63.969177"
       fy="14.113381"
       id="radialGradient2777"
       xlink:href="#linearGradient7012-661-145-733-759-865-745-661-970-94"
       gradientUnits="userSpaceOnUse"
       gradientTransform="matrix(1.5646925,-9.5143002e-8,6.1772287e-8,1.015888,-86.212573,8.1461173)" />
    <linearGradient
       id="linearGradient6129-963-697-142-998-580-273">
      <stop
         id="stop2661"
         style="stop-color:#0a0a0a;stop-opacity:0.498"
         offset="0" />
      <stop
         id="stop2663"
         style="stop-color:#0a0a0a;stop-opacity:0"
         offset="1" />
    </linearGradient>
    <linearGradient
       x1="22.934725"
       y1="49.629246"
       x2="22.809399"
       y2="36.657963"
       id="linearGradient2774"
       xlink:href="#linearGradient6129-963-697-142-998-580-273"
       gradientUnits="userSpaceOnUse"
       gradientTransform="matrix(1.1446925,0,0,0.9977536,-3.4661413,1.0988425)" />
    <linearGradient
       id="linearGradient6087-437-184-795-110-662-495">
      <stop
         id="stop2693"
         style="stop-color:#ffffff;stop-opacity:0.40000001"
         offset="0" />
      <stop
         id="stop2695"
         style="stop-color:#ffffff;stop-opacity:0"
         offset="1" />
    </linearGradient>
    <radialGradient
       cx="7.2646537"
       cy="8.3021259"
       r="20.979567"
       fx="7.2646537"
       fy="8.3021259"
       id="radialGradient2771"
       xlink:href="#linearGradient6087-437-184-795-110-662-495"
       gradientUnits="userSpaceOnUse"
       gradientTransform="matrix(0,1.2079744,-1.6271642,0,26.371748,8.2664685)" />
    <linearGradient
       id="linearGradient8265-821-176-38-919-66-249">
      <stop
         id="stop2687"
         style="stop-color:#ffffff;stop-opacity:0.27450982"
         offset="0" />
      <stop
         id="stop2689"
         style="stop-color:#ffffff;stop-opacity:0.07843138"
         offset="1" />
    </linearGradient>
    <linearGradient
       x1="11.566265"
       y1="22.292103"
       x2="15.214532"
       y2="33.95525"
       id="linearGradient2768"
       xlink:href="#linearGradient8265-821-176-38-919-66-249"
       gradientUnits="userSpaceOnUse" />
  </defs>
  <g
     id="g2701">
    <g
       id="g2902">
      <g
         transform="translate(3.630422e-2,-1.2165904e-7)"
         id="g2589">
        <g
           transform="translate(19.518072,21.496043)"
           id="g3377">
          <g
             transform="matrix(0.5459263,0,0,0.5168524,-20.520108,-22.074225)"
             id="g3490"
             style="stroke-width:1.88256383;stroke-miterlimit:4;stroke-dasharray:none">
            <g
               transform="matrix(2.165152e-2,0,0,1.485743e-2,43.0076,42.68539)"
               id="g5022"
               style="stroke-width:104.96237946;stroke-miterlimit:4;stroke-dasharray:none;display:inline">
              <rect
                 width="1339.6335"
                 height="478.35718"
                 x="-1559.2523"
                 y="-150.69685"
                 id="rect2527"
                 style="opacity:0.40206185;fill:url(#linearGradient3388);fill-opacity:1;fill-rule:nonzero;stroke:none;stroke-width:104.96237946;marker:none;visibility:visible;display:inline;overflow:visible" />
              <path
                 d="M -219.61876,-150.68038 C -219.61876,-150.68038 -219.61876,327.65041 -219.61876,327.65041 C -76.744594,328.55086 125.78146,220.48075 125.78138,88.454235 C 125.78138,-43.572302 -33.655436,-150.68036 -219.61876,-150.68038 L -219.61876,-150.68038 z"
                 id="path2529"
                 style="opacity:0.40206185;fill:url(#radialGradient3390);fill-opacity:1;fill-rule:nonzero;stroke:none;stroke-width:104.96237946;marker:none;visibility:visible;display:inline;overflow:visible" />
              <path
                 d="M -1559.2523,-150.68038 C -1559.2523,-150.68038 -1559.2523,327.65041 -1559.2523,327.65041 C -1702.1265,328.55086 -1904.6525,220.48075 -1904.6525,88.454235 C -1904.6525,-43.572302 -1745.2157,-150.68036 -1559.2523,-150.68038 L -1559.2523,-150.68038 z"
                 id="path2531"
                 style="opacity:0.40206185;fill:url(#radialGradient3392);fill-opacity:1;fill-rule:nonzero;stroke:none;stroke-width:104.96237946;marker:none;visibility:visible;display:inline;overflow:visible" />
            </g>
          </g>
          <path
             d="M -18.840791,-18.926548 C -18.926331,-18.926548 -18.99966,-18.833798 -18.99966,-18.738005 C -18.99966,-12.868845 -19.04274,-6.4939157 -19.0488,-0.5132834 C -19.01972,0.3817516 -18.511559,0.9918586 -18.159135,0.9950586 C -17.146399,1.0042536 -17.619863,0.9910296 -17.1106,0.9950586 C -10.640267,0.9789596 -3.5316834,0.9168856 2.9386476,0.9007876 C 2.9928616,0.9077056 1.4619326,0.7930626 1.4770536,-0.5447074 C 1.4770546,-5.2176544 0.97500656,-11.731699 0.97500656,-16.404648 C 0.97500656,-16.591526 0.95956656,-16.695534 0.94323256,-16.781733 C 0.93061856,-16.848293 0.91453656,-16.880603 0.87968556,-16.907428 C 0.85182356,-16.931878 0.82513656,-16.964468 0.78436456,-16.970278 L -8.0357743,-16.970278 C -8.85109,-16.970278 -9.0378305,-18.962241 -10.249464,-18.962241 L -18.840788,-18.926551 L -18.840791,-18.926548 z"
             id="path3496"
             style="fill:url(#linearGradient3394);fill-opacity:1;stroke:url(#linearGradient3396);stroke-width:1.01114547;stroke-linecap:round;stroke-linejoin:round;stroke-miterlimit:4;stroke-dasharray:none;stroke-opacity:1;display:inline" />
          <path
             d="M -16.018718,-14.948917 C -5.4488164,-14.948917 -2.9882744,-14.948457 3.9747866,-14.976457 C 3.9747866,-13.406013 4.2329426,1.0638176 3.4906746,1.0638176 C 2.7766266,1.0638176 -10.554976,0.9694666 -17.518035,0.9974656 C -16.046351,0.9974656 -16.018718,0.3747176 -16.018718,-14.948918 L -16.018718,-14.948917 z"
             id="path3498"
             style="fill:url(#radialGradient3398);fill-opacity:1;stroke:url(#linearGradient3400);stroke-width:1;stroke-linecap:round;stroke-linejoin:round;stroke-miterlimit:4;stroke-dasharray:none;stroke-opacity:1;display:inline" />
          <path
             d="M 3.4207266,-13.887201 C 3.4207266,-13.887201 -13.411074,-13.793591 -14.976069,-13.979571 C -15.059009,-0.1501374 -15.477017,0.4594706 -15.477017,0.4594706"
             id="path3211"
             style="opacity:0.4;fill:none;stroke:url(#radialGradient3402);stroke-width:0.98119503;stroke-linecap:butt;stroke-linejoin:miter;stroke-miterlimit:4;stroke-dasharray:none;stroke-opacity:1;display:inline" />
          <path
             d="M 3.21875,5.34375 C 1.6798019,5.34375 0.40625,6.617302 0.40625,8.15625 L 0.40625,24.15625 C 0.412144,24.442483 0.55466957,24.768827 0.78125,24.96875 C 1.0078275,25.168671 1.2974446,25.253022 1.625,25.21875 C 1.635415,25.219016 1.645835,25.219016 1.65625,25.21875 L 46.65625,18.09375 C 47.178023,18.01146 47.586456,17.55942 47.59375,17.03125 L 47.59375,8.15625 C 47.59375,6.617302 46.320198,5.34375 44.78125,5.34375 L 3.21875,5.34375 L 3.21875,5.34375 z"
             transform="matrix(0.4450331,0,0,0.4023652,-16.698867,-17.646182)"
             id="path2608"
             style="fill:url(#linearGradient3404);fill-opacity:1;fill-rule:evenodd;stroke:none" />
        </g>
      </g>
      <rect
         width="7"
         height="1"
         rx="0.53846157"
         ry="0.5"
         x="2"
         y="4"
         id="rect2545"
         style="fill:#eda374;fill-opacity:1;fill-rule:nonzero;stroke:none;stroke-width:1;marker:none;visibility:visible;display:block;overflow:visible;enable-background:accumulate" />
    </g>
  </g>
</svg>

<?xml version="1.0" encoding="UTF-8" standalone="no"?>
<!-- Created with Inkscape (http://www.inkscape.org/) -->
<svg id="svg3272" xmlns="http://www.w3.org/2000/svg" height="24" width="24" version="1.0" xmlns:xlink="http://www.w3.org/1999/xlink">
 <defs id="defs3274">
  <linearGradient id="linearGradient3404" y2="24.628" gradientUnits="userSpaceOnUse" x2="20.055" y1="16.408" x1="18.031">
   <stop id="stop2687" style="stop-color:#fff;stop-opacity:.27451" offset="0"/>
   <stop id="stop2689" style="stop-color:#fff;stop-opacity:.078431" offset="1"/>
  </linearGradient>
  <radialGradient id="radialGradient3402" gradientUnits="userSpaceOnUse" cy="5.5927" cx="4.02" gradientTransform="matrix(-.016802 1.3943 -1.7966 -.021651 -5.3658 -19.339)" r="10.273">
   <stop id="stop3754" style="stop-color:#fff" offset="0"/>
   <stop id="stop3760" style="stop-color:#fff" offset=".84754"/>
   <stop id="stop3756" style="stop-color:#fff;stop-opacity:0" offset="1"/>
  </radialGradient>
  <linearGradient id="linearGradient3400" y2="4.303" gradientUnits="userSpaceOnUse" x2="9.7046" gradientTransform="matrix(.99458 0 0 .99458 -19.857 -19.778)" y1="20.882" x1="9.7046">
   <stop id="stop3624" style="stop-color:#bb2b12" offset="0"/>
   <stop id="stop3626" style="stop-color:#cd7233" offset="1"/>
  </linearGradient>
  <radialGradient id="radialGradient3398" gradientUnits="userSpaceOnUse" cy="8.5609" cx="7.8186" gradientTransform="matrix(1.69 0 0 1.0436 -24.967 -20.534)" r="11.268">
   <stop id="stop3618" style="stop-color:#edb763" offset="0"/>
   <stop id="stop3270" style="stop-color:#de7f32" offset=".5"/>
   <stop id="stop3620" style="stop-color:#d24413" offset="1"/>
  </radialGradient>
  <linearGradient id="linearGradient3396" y2="23.062" gradientUnits="userSpaceOnUse" x2="9.8764" gradientTransform="translate(-19.518 -21.496)" y1="2.6015" x1="9.8764">
   <stop id="stop5159" style="stop-color:#c1c1c1" offset="0"/>
   <stop id="stop5161" style="stop-color:#909090" offset="1"/>
  </linearGradient>
  <linearGradient id="linearGradient3394" y2="37.503" gradientUnits="userSpaceOnUse" x2="-28.531" gradientTransform="translate(14.86 -35.997)" y1="17.956" x1="-28.531">
   <stop id="stop11113" style="stop-color:#fff" offset="0"/>
   <stop id="stop11115" style="stop-color:#cdcdcd" offset=".91014"/>
   <stop id="stop11117" style="stop-color:#a1a1a1" offset="1"/>
  </linearGradient>
  <radialGradient id="radialGradient3392" xlink:href="#linearGradient5060" gradientUnits="userSpaceOnUse" cy="486.65" cx="605.71" gradientTransform="matrix(-2.7744 0 0 1.9697 112.76 -872.89)" r="117.14"/>
  <linearGradient id="linearGradient5060">
   <stop id="stop5062" offset="0"/>
   <stop id="stop5064" style="stop-opacity:0" offset="1"/>
  </linearGradient>
  <radialGradient id="radialGradient3390" xlink:href="#linearGradient5060" gradientUnits="userSpaceOnUse" cy="486.65" cx="605.71" gradientTransform="matrix(2.7744 0 0 1.9697 -1891.6 -872.89)" r="117.14"/>
  <linearGradient id="linearGradient3388" y2="609.51" gradientUnits="userSpaceOnUse" x2="302.86" gradientTransform="matrix(2.7744 0 0 1.9697 -1892.2 -872.89)" y1="366.65" x1="302.86">
   <stop id="stop5050" style="stop-opacity:0" offset="0"/>
   <stop id="stop5056" offset=".5"/>
   <stop id="stop5052" style="stop-opacity:0" offset="1"/>
  </linearGradient>
 </defs>
 <g id="g2701">
  <g id="g2902">
   <g id="g2589" transform="translate(.036304 -1.2166e-7)">
    <g id="g3377" transform="translate(19.518 21.496)">
     <g id="g3490" style="stroke-width:1.8826" transform="matrix(.54593 0 0 .51685 -20.52 -22.074)">
      <g id="g5022" style="stroke-width:104.96" transform="matrix(.021652 0 0 .014857 43.008 42.685)">
       <rect id="rect2527" style="opacity:.40206;fill:url(#linearGradient3388)" height="478.36" width="1339.6" y="-150.7" x="-1559.3"/>
       <path id="path2529" style="opacity:.40206;fill:url(#radialGradient3390)" d="m-219.62-150.68v478.33c142.88 0.9 345.4-107.17 345.4-239.2 0-132.02-159.44-239.13-345.4-239.13z"/>
       <path id="path2531" style="opacity:.40206;fill:url(#radialGradient3392)" d="m-1559.3-150.68v478.33c-142.8 0.9-345.4-107.17-345.4-239.2 0-132.02 159.5-239.13 345.4-239.13z"/>
      </g>
     </g>
     <path id="path3496" style="stroke-linejoin:round;stroke:url(#linearGradient3396);stroke-linecap:round;stroke-width:1.0111;fill:url(#linearGradient3394)" d="m-18.841-18.927c-0.085 0-0.159 0.093-0.159 0.189 0 5.869-0.043 12.244-0.049 18.225 0.029 0.89475 0.537 1.5049 0.89 1.5081 1.013 0.0092 0.539-0.00407 1.048-0.00004 6.471-0.0161 13.579-0.07817 20.05-0.09427 0.0539 0.00692-1.4771-0.10773-1.4619-1.4455 0-4.673-0.50209-11.187-0.50209-15.86 0-0.187-0.01544-0.291-0.03178-0.377-0.01261-0.066-0.02869-0.099-0.06354-0.125-0.02787-0.025-0.05455-0.057-0.09533-0.063h-8.8202c-0.8153 0-1.002-1.992-2.2132-1.992l-8.592 0.035z"/>
     <path id="path3498" style="stroke-linejoin:round;stroke:url(#linearGradient3400);stroke-linecap:round;fill:url(#radialGradient3398)" d="m-16.019-14.949c10.57 0 13.031 0.001 19.994-0.027-0.0002 1.57 0.2579 16.04-0.4843 16.04-0.7141-0.0002-14.046-0.09453-21.009-0.06653 1.472 0 1.499-0.62275 1.499-15.946z"/>
     <path id="path3211" style="opacity:.4;stroke:url(#radialGradient3402);stroke-width:.98120;fill:none" d="m3.4207-13.887s-16.832 0.093-18.397-0.093c-0.083 13.83-0.501 14.439-0.501 14.439"/>
     <path id="path2608" style="fill:url(#linearGradient3404);fill-rule:evenodd" d="m3.2188 5.3438c-1.539 0-2.8126 1.2735-2.8126 2.8124l0.00005 16c0.00589 0.286 0.14842 0.613 0.375 0.813 0.22655 0.2 0.51615 0.284 0.84375 0.25h0.0312l45-7.125c0.522-0.083 0.93-0.535 0.938-1.063v-8.8748c0-1.5389-1.274-2.8124-2.813-2.8124h-41.562-0.0002z" transform="matrix(.44503 0 0 .40237 -16.699 -17.646)"/>
    </g>
   </g>
   <rect id="rect2545" style="display:block;fill:#eda374" rx=".53846" ry=".5" height="1" width="7" y="4" x="2"/>
  </g>
 </g>
</svg>
